static/img/kroki/4e396d3ea98055b1c70f9d2377390faf.svg

<?xml version="1.0" encoding="us-ascii" standalone="no"?><svg xmlns="http://www.w3.org/2000/svg" xmlns:xlink="http://www.w3.org/1999/xlink" contentStyleType="text/css" height="374px" preserveAspectRatio="none" style="width:397px;height:374px;" version="1.1" viewBox="0 0 397 374" width="397px" zoomAndPan="magnify"><defs/><g><!--class autoscaling_group--><g id="elem_autoscaling_group"><rect codeLine="23" fill="#3D176E" height="39.7891" id="autoscaling_group" rx="2.5" ry="2.5" style="stroke:#000D19;stroke-width:0.5;" width="194" x="7" y="167.79"/><ellipse cx="22" cy="187.6845" fill="#ADD1B2" rx="11" ry="11" style="stroke:#181818;stroke-width:1.0;"/><path d="M24.9688,193.3252 Q24.3906,193.622 23.75,193.7627 Q23.1094,193.9189 22.4063,193.9189 Q19.9063,193.9189 18.5781,192.2783 Q17.2656,190.622 17.2656,187.497 Q17.2656,184.372 18.5781,182.7158 Q19.9063,181.0595 22.4063,181.0595 Q23.1094,181.0595 23.75,181.2158 Q24.4063,181.372 24.9688,181.6689 L24.9688,184.3877 Q24.3438,183.8095 23.75,183.5439 Q23.1563,183.2627 22.5313,183.2627 Q21.1875,183.2627 20.5,184.3408 Q19.8125,185.4033 19.8125,187.497 Q19.8125,189.5908 20.5,190.6689 Q21.1875,191.7314 22.5313,191.7314 Q23.1563,191.7314 23.75,191.4658 Q24.3438,191.1845 24.9688,190.6064 L24.9688,193.3252 Z " fill="#000000"/><text fill="#D9B8FF" font-family="Helvetica" font-size="17" lengthAdjust="spacing" textLength="152" x="41" y="193.5698">autoscaling_group</text></g><!--class aws_autoscaling_group--><g id="elem_aws_autoscaling_group"><rect codeLine="26" fill="#3D176E" height="39.7891" id="aws_autoscaling_group" rx="2.5" ry="2.5" style="stroke:#000D19;stroke-width:0.5;" width="236" x="90" y="328.58"/><ellipse cx="105" cy="348.4745" fill="#ADD1B2" rx="11" ry="11" style="stroke:#181818;stroke-width:1.0;"/><path d="M107.9688,354.1152 Q107.3906,354.412 106.75,354.5527 Q106.1094,354.7089 105.4063,354.7089 Q102.9063,354.7089 101.5781,353.0683 Q100.2656,351.412 100.2656,348.287 Q100.2656,345.162 101.5781,343.5058 Q102.9063,341.8495 105.4063,341.8495 Q106.1094,341.8495 106.75,342.0058 Q107.4063,342.162 107.9688,342.4589 L107.9688,345.1777 Q107.3438,344.5995 106.75,344.3339 Q106.1563,344.0527 105.5313,344.0527 Q104.1875,344.0527 103.5,345.1308 Q102.8125,346.1933 102.8125,348.287 Q102.8125,350.3808 103.5,351.4589 Q104.1875,352.5214 105.5313,352.5214 Q106.1563,352.5214 106.75,352.2558 Q107.3438,351.9745 107.9688,351.3964 L107.9688,354.1152 Z " fill="#000000"/><text fill="#D9B8FF" font-family="Helvetica" font-size="17" lengthAdjust="spacing" textLength="194" x="124" y="354.3598">aws_autoscaling_group</text></g><!--class aws_resource--><g id="elem_aws_resource"><rect codeLine="29" fill="#3D176E" height="39.7891" id="aws_resource" rx="2.5" ry="2.5" style="stroke:#000D19;stroke-width:0.5;" width="155" x="235.5" y="167.79"/><ellipse cx="250.5" cy="187.6845" fill="#ADD1B2" rx="11" ry="11" style="stroke:#181818;stroke-width:1.0;"/><path d="M253.4688,193.3252 Q252.8906,193.622 252.25,193.7627 Q251.6094,193.9189 250.9063,193.9189 Q248.4063,193.9189 247.0781,192.2783 Q245.7656,190.622 245.7656,187.497 Q245.7656,184.372 247.0781,182.7158 Q248.4063,181.0595 250.9063,181.0595 Q251.6094,181.0595 252.25,181.2158 Q252.9063,181.372 253.4688,181.6689 L253.4688,184.3877 Q252.8438,183.8095 252.25,183.5439 Q251.6563,183.2627 251.0313,183.2627 Q249.6875,183.2627 249,184.3408 Q248.3125,185.4033 248.3125,187.497 Q248.3125,189.5908 249,190.6689 Q249.6875,191.7314 251.0313,191.7314 Q251.6563,191.7314 252.25,191.4658 Q252.8438,191.1845 253.4688,190.6064 L253.4688,193.3252 Z " fill="#000000"/><text fill="#D9B8FF" font-family="Helvetica" font-size="17" lengthAdjust="spacing" textLength="113" x="269.5" y="193.5698">aws_resource</text></g><!--class resource--><g id="elem_resource"><rect codeLine="32" fill="#3D176E" height="39.7891" id="resource" rx="2.5" ry="2.5" style="stroke:#000D19;stroke-width:0.5;" width="113" x="151.5" y="7"/><ellipse cx="166.5" cy="26.8945" fill="#ADD1B2" rx="11" ry="11" style="stroke:#181818;stroke-width:1.0;"/><path d="M169.4688,32.5352 Q168.8906,32.832 168.25,32.9727 Q167.6094,33.1289 166.9063,33.1289 Q164.4063,33.1289 163.0781,31.4883 Q161.7656,29.832 161.7656,26.707 Q161.7656,23.582 163.0781,21.9258 Q164.4063,20.2695 166.9063,20.2695 Q167.6094,20.2695 168.25,20.4258 Q168.9063,20.582 169.4688,20.8789 L169.4688,23.5977 Q168.8438,23.0195 168.25,22.7539 Q167.6563,22.4727 167.0313,22.4727 Q165.6875,22.4727 165,23.5508 Q164.3125,24.6133 164.3125,26.707 Q164.3125,28.8008 165,29.8789 Q165.6875,30.9414 167.0313,30.9414 Q167.6563,30.9414 168.25,30.6758 Q168.8438,30.3945 169.4688,29.8164 L169.4688,32.5352 Z " fill="#000000"/><text fill="#D9B8FF" font-family="Helvetica" font-size="17" lengthAdjust="spacing" textLength="71" x="185.5" y="32.7798">resource</text></g><!--reverse link resource to autoscaling_group--><g id="link_resource_autoscaling_group"><path codeLine="35" d="M185.5976,62.1076 C165.6076,92.6276 136.61,136.9 116.59,167.46 " fill="none" id="resource-backto-autoscaling_group" style="stroke:#FFAF37;stroke-width:2.0;"/><polygon fill="none" points="195.46,47.05,180.5783,58.8201,190.6168,65.3951,195.46,47.05" style="stroke:#FFAF37;stroke-width:2.0;"/></g><!--reverse link autoscaling_group to aws_autoscaling_group--><g id="link_autoscaling_group_aws_autoscaling_group"><path codeLine="36" d="M126.4024,222.8976 C146.3924,253.4176 175.39,297.69 195.41,328.25 " fill="none" id="autoscaling_group-backto-aws_autoscaling_group" style="stroke:#FFAF37;stroke-width:2.0;"/><polygon fill="none" points="116.54,207.84,121.3832,226.1851,131.4217,219.6101,116.54,207.84" style="stroke:#FFAF37;stroke-width:2.0;"/></g><!--reverse link aws_resource to aws_autoscaling_group--><g id="link_aws_resource_aws_autoscaling_group"><path codeLine="37" d="M290.4022,222.8546 C270.2222,253.3746 240.92,297.69 220.71,328.25 " fill="none" id="aws_resource-backto-aws_autoscaling_group" style="stroke:#FFAF37;stroke-width:2.0;"/><polygon fill="none" points="300.33,207.84,285.3974,219.5454,295.4071,226.1639,300.33,207.84" style="stroke:#FFAF37;stroke-width:2.0;"/></g><!--reverse link resource to aws_resource--><g id="link_resource_aws_resource"><path codeLine="38" d="M230.5978,62.0646 C250.7778,92.5846 280.08,136.9 300.29,167.46 " fill="none" id="resource-backto-aws_resource" style="stroke:#FFAF37;stroke-width:2.0;"/><polygon fill="none" points="220.67,47.05,225.5929,65.3739,235.6026,58.7554,220.67,47.05" style="stroke:#FFAF37;stroke-width:2.0;"/></g><!--SRC=[XP1BRy8m48Jl_XMME4U2eZOWzK8ZLUq5LQLtjDXhOYMnexLJH1__lQGyPE80nvtvj3ExkPR8iQhzbbTOhP0SSuKsDH1KV4PaDvajBV61Kg36QTTyjiRV1EPG8N_1yXEz5j0bFd8j2eFEyRl0UW9HhCasHkxNUmBZTXOQ7r1P2SxDl2UzQZm6PUHqDL6gItQN3iPob3vWX5cII0TaE1pAqRIBt8owUlU9MEWlvAFmQNFhCQePHVnJLrksH50oElJeN-pu1b9gi-RtWVQ-xqG6wKnVv23jfgKLb2wCSHu9hT_Mc4LNuNGYLTeBlrw2cMXVnw7nrWaeTv7B5glvDsE_HtFZbZS1GcSR4XZgvzffUln9aYIEP776WUpBPsUXry0Uw2YnFm00]--></g></svg>

<svg xmlns="http://www.w3.org/2000/svg" width="397" height="374" viewBox="0 0 397 374"><rect width="194" height="39.789" x="7" y="167.79" fill="#3D176E" rx="2.5" ry="2.5" style="stroke:#000d19;stroke-width:.5"/><circle cx="22" cy="187.685" r="11" fill="#ADD1B2" style="stroke:#181818;stroke-width:1"/><path d="M24.969 193.325q-.578.297-1.219.438-.64.156-1.344.156-2.5 0-3.828-1.64-1.312-1.657-1.312-4.782t1.312-4.781q1.328-1.656 3.828-1.656.703 0 1.344.156.656.156 1.219.453v2.719q-.625-.578-1.219-.844-.594-.281-1.219-.281-1.343 0-2.031 1.078-.687 1.062-.687 3.156t.687 3.172q.688 1.062 2.031 1.062.625 0 1.219-.265.594-.281 1.219-.86z"/><text x="41" y="193.57" fill="#D9B8FF" font-family="Helvetica" font-size="17" textLength="152">autoscaling_group</text><rect width="236" height="39.789" x="90" y="328.58" fill="#3D176E" rx="2.5" ry="2.5" style="stroke:#000d19;stroke-width:.5"/><circle cx="105" cy="348.474" r="11" fill="#ADD1B2" style="stroke:#181818;stroke-width:1"/><path d="M107.969 354.115q-.578.297-1.219.438-.64.156-1.344.156-2.5 0-3.828-1.64-1.312-1.657-1.312-4.782t1.312-4.781q1.328-1.656 3.828-1.656.703 0 1.344.156.656.156 1.219.453v2.719q-.625-.579-1.219-.844-.594-.281-1.219-.281-1.344 0-2.031 1.078-.687 1.062-.687 3.156t.687 3.172q.688 1.062 2.031 1.062.625 0 1.219-.265.594-.281 1.219-.86z"/><text x="124" y="354.36" fill="#D9B8FF" font-family="Helvetica" font-size="17" textLength="194">aws_autoscaling_group</text><rect width="155" height="39.789" x="235.5" y="167.79" fill="#3D176E" rx="2.5" ry="2.5" style="stroke:#000d19;stroke-width:.5"/><circle cx="250.5" cy="187.685" r="11" fill="#ADD1B2" style="stroke:#181818;stroke-width:1"/><path d="M253.469 193.325q-.578.297-1.219.438-.64.156-1.344.156-2.5 0-3.828-1.64-1.312-1.657-1.312-4.782t1.312-4.781q1.328-1.656 3.828-1.656.703 0 1.344.156.656.156 1.219.453v2.719q-.625-.578-1.219-.844-.594-.281-1.219-.281-1.344 0-2.031 1.078-.687 1.062-.687 3.156t.687 3.172q.688 1.062 2.031 1.062.625 0 1.219-.265.594-.281 1.219-.86z"/><text x="269.5" y="193.57" fill="#D9B8FF" font-family="Helvetica" font-size="17" textLength="113">aws_resource</text><rect width="113" height="39.789" x="151.5" y="7" fill="#3D176E" rx="2.5" ry="2.5" style="stroke:#000d19;stroke-width:.5"/><circle cx="166.5" cy="26.895" r="11" fill="#ADD1B2" style="stroke:#181818;stroke-width:1"/><path d="M169.469 32.535q-.578.297-1.219.438-.64.156-1.344.156-2.5 0-3.828-1.64-1.312-1.657-1.312-4.782t1.312-4.781q1.328-1.656 3.828-1.656.703 0 1.344.156.656.156 1.219.453v2.719q-.625-.578-1.219-.844-.594-.281-1.219-.281-1.344 0-2.031 1.078-.687 1.062-.687 3.156t.687 3.172q.688 1.062 2.031 1.062.625 0 1.219-.265.594-.281 1.219-.86z"/><text x="185.5" y="32.78" fill="#D9B8FF" font-family="Helvetica" font-size="17" textLength="71">resource</text><path fill="none" d="M185.598 62.108c-19.99 30.52-48.988 74.792-69.008 105.352m78.87-120.41-14.882 11.77 10.039 6.575zm-69.058 175.848c19.99 30.52 48.988 74.792 69.008 105.352m-78.87-120.41 4.843 18.345 10.039-6.575zm173.862 15.015c-20.18 30.52-49.482 74.835-69.692 105.395m79.62-120.41-14.933 11.705 10.01 6.619zM230.598 62.065c20.18 30.52 49.482 74.835 69.692 105.395M220.67 47.05l4.923 18.324 10.01-6.619z" style="stroke:#ffaf37;stroke-width:2"/></svg>
